static/img/kroki/b5988437546a81a0f13aa2ccbac409d3.svg

<?xml version="1.0" encoding="us-ascii" standalone="no"?><svg xmlns="http://www.w3.org/2000/svg" xmlns:xlink="http://www.w3.org/1999/xlink" contentStyleType="text/css" height="152px" preserveAspectRatio="none" style="width:371px;height:152px;" version="1.1" viewBox="0 0 371 152" width="371px" zoomAndPan="magnify"><defs/><g><!--class gcp_network--><g id="elem_gcp_network"><rect codeLine="22" fill="#3D176E" height="39.7891" id="gcp_network" rx="2.5" ry="2.5" style="stroke:#000D19;stroke-width:0.5;" width="149" x="7" y="7"/><ellipse cx="22" cy="26.8945" fill="#ADD1B2" rx="11" ry="11" style="stroke:#181818;stroke-width:1.0;"/><path d="M24.9688,32.5352 Q24.3906,32.832 23.75,32.9727 Q23.1094,33.1289 22.4063,33.1289 Q19.9063,33.1289 18.5781,31.4883 Q17.2656,29.832 17.2656,26.707 Q17.2656,23.582 18.5781,21.9258 Q19.9063,20.2695 22.4063,20.2695 Q23.1094,20.2695 23.75,20.4258 Q24.4063,20.582 24.9688,20.8789 L24.9688,23.5977 Q24.3438,23.0195 23.75,22.7539 Q23.1563,22.4727 22.5313,22.4727 Q21.1875,22.4727 20.5,23.5508 Q19.8125,24.6133 19.8125,26.707 Q19.8125,28.8008 20.5,29.8789 Q21.1875,30.9414 22.5313,30.9414 Q23.1563,30.9414 23.75,30.6758 Q24.3438,30.3945 24.9688,29.8164 L24.9688,32.5352 Z " fill="#000000"/><text fill="#D9B8FF" font-family="Helvetica" font-size="17" lengthAdjust="spacing" textLength="107" x="41" y="32.7798">gcp_network</text></g><!--class gcp_router--><g id="elem_gcp_router"><rect codeLine="24" fill="#3D176E" height="39.7891" id="gcp_router" rx="2.5" ry="2.5" style="stroke:#000D19;stroke-width:0.5;" width="131" x="114" y="106.79"/><ellipse cx="129" cy="126.6845" fill="#ADD1B2" rx="11" ry="11" style="stroke:#181818;stroke-width:1.0;"/><path d="M131.9688,132.3252 Q131.3906,132.622 130.75,132.7627 Q130.1094,132.9189 129.4063,132.9189 Q126.9063,132.9189 125.5781,131.2783 Q124.2656,129.622 124.2656,126.497 Q124.2656,123.372 125.5781,121.7158 Q126.9063,120.0595 129.4063,120.0595 Q130.1094,120.0595 130.75,120.2158 Q131.4063,120.372 131.9688,120.6689 L131.9688,123.3877 Q131.3438,122.8095 130.75,122.5439 Q130.1563,122.2627 129.5313,122.2627 Q128.1875,122.2627 127.5,123.3408 Q126.8125,124.4033 126.8125,126.497 Q126.8125,128.5908 127.5,129.6689 Q128.1875,130.7314 129.5313,130.7314 Q130.1563,130.7314 130.75,130.4658 Q131.3438,130.1845 131.9688,129.6064 L131.9688,132.3252 Z " fill="#000000"/><text fill="#D9B8FF" font-family="Helvetica" font-size="17" lengthAdjust="spacing" textLength="89" x="148" y="132.5698">gcp_router</text></g><!--class gcp_vpn_tunnel--><g id="elem_gcp_vpn_tunnel"><rect codeLine="26" fill="#3D176E" height="39.7891" id="gcp_vpn_tunnel" rx="2.5" ry="2.5" style="stroke:#000D19;stroke-width:0.5;" width="174" x="190.5" y="7"/><ellipse cx="205.5" cy="26.8945" fill="#ADD1B2" rx="11" ry="11" style="stroke:#181818;stroke-width:1.0;"/><path d="M208.4688,32.5352 Q207.8906,32.832 207.25,32.9727 Q206.6094,33.1289 205.9063,33.1289 Q203.4063,33.1289 202.0781,31.4883 Q200.7656,29.832 200.7656,26.707 Q200.7656,23.582 202.0781,21.9258 Q203.4063,20.2695 205.9063,20.2695 Q206.6094,20.2695 207.25,20.4258 Q207.9063,20.582 208.4688,20.8789 L208.4688,23.5977 Q207.8438,23.0195 207.25,22.7539 Q206.6563,22.4727 206.0313,22.4727 Q204.6875,22.4727 204,23.5508 Q203.3125,24.6133 203.3125,26.707 Q203.3125,28.8008 204,29.8789 Q204.6875,30.9414 206.0313,30.9414 Q206.6563,30.9414 207.25,30.6758 Q207.8438,30.3945 208.4688,29.8164 L208.4688,32.5352 Z " fill="#000000"/><text fill="#D9B8FF" font-family="Helvetica" font-size="17" lengthAdjust="spacing" textLength="132" x="224.5" y="32.7798">gcp_vpn_tunnel</text></g><!--link gcp_network to gcp_router--><g id="link_gcp_network_gcp_router"><path codeLine="28" d="M100.86,47.22 C116.7,63.02 139.16,85.43 156.02,102.26 " fill="none" id="gcp_network-to-gcp_router" style="stroke:#1A83AF;stroke-width:2.0;"/><polygon fill="#1A83AF" points="159.18,105.41,155.663,96.2105,155.6516,101.8673,149.9948,101.8559,159.18,105.41" style="stroke:#1A83AF;stroke-width:2.0;"/></g><!--link gcp_vpn_tunnel to gcp_router--><g id="link_gcp_vpn_tunnel_gcp_router"><path codeLine="29" d="M258.14,47.22 C242.3,63.02 219.84,85.43 202.98,102.26 " fill="none" id="gcp_vpn_tunnel-to-gcp_router" style="stroke:#1A83AF;stroke-width:2.0;"/><polygon fill="#1A83AF" points="199.82,105.41,209.0052,101.8559,203.3484,101.8673,203.337,96.2105,199.82,105.41" style="stroke:#1A83AF;stroke-width:2.0;"/></g><!--SRC=[XP3DIyD04CNl_IiMSYua5cro4MAXwAM8zIPIjjdPPaao6sQd3LNyt-s7ohhfn_MztxnvCwLH8A1fUIiQQ9P0Rk0gWwqasOYSo7OJMriIaTPIZyQXERN8Lu6PR40yGhq1DeKCYTVI51M2S-B6invaKQt8hb4Tuvaakfq5o1urgQLpEJEPvPh1AwEoPQfrI8QXqKWbupleOPOKq0yInx5AiX2vkkhYtN_4t7o0IFodpIn3hsPlnO6ws79FU2LxX_xwPpi-IwKChiIjfxqSEn42_TFdfLIsszDQrivVunW8B6zRcFIkWYnLUdmIVZe75_lFYLNHBX2uirI9py6Nf-v6TY61k6bnmMj4g0-6FpryYv8y7UNJz-6z5p08nivWtm00]--></g></svg>

<svg xmlns="http://www.w3.org/2000/svg" width="371" height="152" preserveAspectRatio="none" style="width:371px;height:152px"><rect width="149" height="39.789" x="7" y="7" fill="#3D176E" rx="2.5" ry="2.5" style="stroke:#000d19;stroke-width:.5"/><circle cx="22" cy="26.895" r="11" fill="#ADD1B2" style="stroke:#181818;stroke-width:1"/><path d="M24.969 32.535q-.578.297-1.219.438-.64.156-1.344.156-2.5 0-3.828-1.64-1.312-1.657-1.312-4.782t1.312-4.781q1.328-1.656 3.828-1.656.703 0 1.344.156.656.156 1.219.453v2.719q-.625-.578-1.219-.844-.594-.281-1.219-.281-1.343 0-2.031 1.078-.688 1.062-.688 3.156 0 2.094.688 3.172.688 1.062 2.031 1.062.625 0 1.219-.265.594-.281 1.219-.86v2.72Z"/><text x="41" y="32.78" fill="#D9B8FF" font-family="Helvetica" font-size="17" textLength="107">gcp_network</text><rect width="131" height="39.789" x="114" y="106.79" fill="#3D176E" rx="2.5" ry="2.5" style="stroke:#000d19;stroke-width:.5"/><circle cx="129" cy="126.684" r="11" fill="#ADD1B2" style="stroke:#181818;stroke-width:1"/><path d="M131.969 132.325q-.578.297-1.219.438-.64.156-1.344.156-2.5 0-3.828-1.64-1.312-1.657-1.312-4.782t1.312-4.781q1.328-1.656 3.828-1.656.703 0 1.344.156.656.156 1.219.453v2.719q-.625-.579-1.219-.844-.594-.281-1.219-.281-1.344 0-2.031 1.078-.688 1.062-.688 3.156 0 2.094.688 3.172.688 1.062 2.031 1.062.625 0 1.219-.265.594-.281 1.219-.86v2.72Z"/><text x="148" y="132.57" fill="#D9B8FF" font-family="Helvetica" font-size="17" textLength="89">gcp_router</text><rect width="174" height="39.789" x="190.5" y="7" fill="#3D176E" rx="2.5" ry="2.5" style="stroke:#000d19;stroke-width:.5"/><circle cx="205.5" cy="26.895" r="11" fill="#ADD1B2" style="stroke:#181818;stroke-width:1"/><path d="M208.469 32.535q-.578.297-1.219.438-.64.156-1.344.156-2.5 0-3.828-1.64-1.312-1.657-1.312-4.782t1.312-4.781q1.328-1.656 3.828-1.656.703 0 1.344.156.656.156 1.219.453v2.719q-.625-.578-1.219-.844-.594-.281-1.219-.281-1.344 0-2.031 1.078-.688 1.062-.688 3.156 0 2.094.688 3.172.688 1.062 2.031 1.062.625 0 1.219-.265.594-.281 1.219-.86v2.72Z"/><text x="224.5" y="32.78" fill="#D9B8FF" font-family="Helvetica" font-size="17" textLength="132">gcp_vpn_tunnel</text><path fill="none" d="M100.86 47.22c15.84 15.8 38.3 38.21 55.16 55.04" style="stroke:#1a83af;stroke-width:2"/><path fill="#1A83AF" d="m159.18 105.41-3.517-9.2-.011 5.657-5.657-.011 9.185 3.554z" style="stroke:#1a83af;stroke-width:2"/><path fill="none" d="M258.14 47.22c-15.84 15.8-38.3 38.21-55.16 55.04" style="stroke:#1a83af;stroke-width:2"/><path fill="#1A83AF" d="m199.82 105.41 9.185-3.554-5.657.011-.011-5.657-3.517 9.2z" style="stroke:#1a83af;stroke-width:2"/></svg>
